ExpEYES17/UserManual/schematics/rod-pendulum.svg

<?xml version="1.0" encoding="UTF-8" standalone="no"?>
<svg
   xmlns:dc="http://purl.org/dc/elements/1.1/"
   xmlns:cc="http://creativecommons.org/ns#"
   xmlns:rdf="http://www.w3.org/1999/02/22-rdf-syntax-ns#"
   xmlns:svg="http://www.w3.org/2000/svg"
   xmlns="http://www.w3.org/2000/svg"
   xmlns:sodipodi="http://sodipodi.sourceforge.net/DTD/sodipodi-0.dtd"
   xmlns:inkscape="http://www.inkscape.org/namespaces/inkscape"
   version="1.1"
   id="rod-pendulum"
   width="100%"
   height="100%"
   viewBox="-6 -6 742 438"
   sodipodi:docname="rod-pendulum.svg"
   inkscape:export-filename="/home/georgesk/developpement/expeyes/expeyes/ExpEYES17/UserManual/fr/rst/exp/schematics/rod-pendulum.png"
   inkscape:export-xdpi="39.024391"
   inkscape:export-ydpi="39.024391"
   inkscape:version="0.92.3 (2405546, 2018-03-11)">
  <metadata
     id="metadata109">
    <rdf:RDF>
      <cc:Work
         rdf:about="">
        <dc:format>image/svg+xml</dc:format>
        <dc:type
           rdf:resource="http://purl.org/dc/dcmitype/StillImage" />
        <dc:title />
      </cc:Work>
    </rdf:RDF>
  </metadata>
  <defs
     id="defs107" />
  <sodipodi:namedview
     pagecolor="#ffffff"
     bordercolor="#666666"
     borderopacity="1"
     objecttolerance="10"
     gridtolerance="10"
     guidetolerance="10"
     inkscape:pageopacity="0"
     inkscape:pageshadow="2"
     inkscape:window-width="1668"
     inkscape:window-height="1013"
     id="namedview105"
     showgrid="false"
     inkscape:zoom="1.4420485"
     inkscape:cx="371"
     inkscape:cy="219"
     inkscape:window-x="0"
     inkscape:window-y="0"
     inkscape:window-maximized="1"
     inkscape:current-layer="rod-pendulum" />
  <desc
     id="desc2">
XCircuit Version 3.7
File &quot;rod-pendulum.ps&quot; Page 1
</desc>
  <text
     font-size="40"
     id="text6"
     style="font-size:40px;font-family:Helvetica;fill:#000000;stroke:none"
     x="35.193748"
     y="205.86">
    <tspan
       x="35.193748"
       y="205.86"
       id="tspan4">SQ1</tspan>
  </text>
  <text
     font-size="40"
     id="text12"
     style="font-size:40px;font-family:Helvetica;fill:#000000;stroke:none"
     x="27.780001"
     y="398.57999">
    <tspan
       x="27.780001"
       y="398.57999"
       id="tspan10">GND</tspan>
  </text>
  <text
     font-size="40"
     id="text18"
     style="font-size:40px;font-family:Helvetica;fill:#000000;stroke:none"
     x="623.40125"
     y="126.58">
    <tspan
       x="623.40125"
       y="126.58"
       id="tspan16">SEN</tspan>
  </text>
  <path
     style="fill:#000000;stroke:none"
     inkscape:connector-curvature="0"
     id="path22"
     d="m 258,256 -18,32 -18,-32 z" />
  <path
     style="fill:none;stroke:#000000;stroke-width:2;stroke-linecap:round;stroke-linejoin:bevel"
     inkscape:connector-curvature="0"
     id="path24"
     d="m 240,224 v 32" />
  <path
     style="fill:none;stroke:#000000;stroke-width:2;stroke-linecap:round;stroke-linejoin:bevel"
     inkscape:connector-curvature="0"
     id="path26"
     d="M 240,320 V 288" />
  <path
     style="fill:none;stroke:#000000;stroke-width:2;stroke-linecap:round;stroke-linejoin:bevel"
     inkscape:connector-curvature="0"
     id="path28"
     d="M 258,288 H 222" />
  <path
     style="fill:none;stroke:#000000;stroke-width:2;stroke-linecap:round;stroke-linejoin:bevel"
     inkscape:connector-curvature="0"
     id="path30"
     d="M 448,272 H 432" />
  <path
     style="fill:none;stroke:#000000;stroke-width:2;stroke-linecap:round;stroke-linejoin:bevel"
     inkscape:connector-curvature="0"
     id="path32"
     d="m 448,224 v 96" />
  <path
     style="fill:none;stroke:#000000;stroke-width:2;stroke-linecap:round;stroke-linejoin:bevel"
     inkscape:connector-curvature="0"
     id="path34"
     d="m 496,224 -48,26" />
  <path
     style="fill:none;stroke:#000000;stroke-width:2;stroke-linecap:round;stroke-linejoin:bevel"
     inkscape:connector-curvature="0"
     id="path36"
     d="M 496,224 V 208" />
  <path
     style="fill:none;stroke:#000000;stroke-width:2;stroke-linecap:round;stroke-linejoin:bevel"
     inkscape:connector-curvature="0"
     id="path38"
     d="M 496,320 448,294" />
  <path
     style="fill:none;stroke:#000000;stroke-width:2;stroke-linecap:round;stroke-linejoin:bevel"
     inkscape:connector-curvature="0"
     id="path40"
     d="m 496,320 v 16" />
  <path
     style="fill:#000000;stroke:none"
     inkscape:connector-curvature="0"
     id="path42"
     d="m 468,313 c 11,1 14,2 28,7 -11,-10 -14,-12 -20,-21 -2,6 -4,10 -8,14" />
  <path
     style="fill:none;stroke:#000000;stroke-width:2;stroke-linecap:round;stroke-linejoin:bevel"
     inkscape:connector-curvature="0"
     id="path44"
     d="m 16,160 v 64 h 112 v -64 z" />
  <path
     style="fill:none;stroke:#000000;stroke-width:2;stroke-linecap:round;stroke-linejoin:bevel"
     inkscape:connector-curvature="0"
     id="path46"
     d="m 16,352 v 64 h 112 v -64 z" />
  <path
     style="fill:none;stroke:#000000;stroke-width:2;stroke-linecap:round;stroke-linejoin:bevel"
     inkscape:connector-curvature="0"
     id="path48"
     d="m 608,80 v 64 H 720 V 80 Z" />
  <path
     style="fill:#000000;stroke:none"
     inkscape:connector-curvature="0"
     id="path50"
     d="m 276,264 c 10,-5 13,-5 28,-8 -15,-3 -18,-3 -28,-8 2,6 2,10 0,16" />
  <text
     font-size="40"
     id="text54"
     style="font-size:40px;font-family:Helvetica;fill:#000000;stroke:none"
     x="128"
     y="288">
    <tspan
       x="128"
       y="288"
       id="tspan52">LED</tspan>
  </text>
  <circle
     style="fill:none;stroke:#000000;stroke-width:2;stroke-linecap:round;stroke-linejoin:bevel"
     r="16"
     id="ellipse58"
     cy="208"
     cx="240" />
  <circle
     style="fill:none;stroke:#000000;stroke-width:2;stroke-linecap:round;stroke-linejoin:bevel"
     r="16"
     id="ellipse60"
     cy="336"
     cx="240" />
  <path
     style="fill:none;stroke:#000000;stroke-width:2;stroke-linecap:round;stroke-linejoin:bevel"
     inkscape:connector-curvature="0"
     id="path62"
     d="m 240,192 c 16,0 -64,-48 -112,-16" />
  <path
     style="fill:none;stroke:#000000;stroke-width:2;stroke-linecap:round;stroke-linejoin:bevel"
     inkscape:connector-curvature="0"
     id="path64"
     d="m 128,384 c 16,0 96,-32 112,-32" />
  <circle
     style="fill:none;stroke:#000000;stroke-width:2;stroke-linecap:round;stroke-linejoin:bevel"
     r="16"
     id="ellipse66"
     cy="192"
     cx="496" />
  <circle
     style="fill:none;stroke:#000000;stroke-width:2;stroke-linecap:round;stroke-linejoin:bevel"
     r="16"
     id="ellipse68"
     cy="352"
     cx="496" />
  <text
     font-size="40"
     id="text72"
     style="font-size:40px;font-family:Helvetica;fill:#000000;stroke:none"
     x="528"
     y="272">
    <tspan
       x="528"
       y="272"
       id="tspan70">Photo</tspan>
  </text>
  <text
     font-size="40"
     id="text78"
     style="font-size:40px;font-family:Helvetica;fill:#000000;stroke:none"
     x="528"
     y="304">
    <tspan
       x="528"
       y="304"
       id="tspan76">transistor</tspan>
  </text>
  <path
     style="fill:none;stroke:#000000;stroke-width:2;stroke-linecap:round;stroke-linejoin:bevel"
     inkscape:connector-curvature="0"
     id="path82"
     d="m 496,176 c 16,0 48,-80 112,-64" />
  <path
     style="fill:none;stroke:#000000;stroke-width:2;stroke-linecap:round;stroke-linejoin:bevel"
     inkscape:connector-curvature="0"
     id="path84"
     d="m 496,368 c 16,0 -240,96 -368,16" />
  <path
     style="fill:none;stroke:#000000;stroke-width:2;stroke-linecap:round;stroke-linejoin:bevel"
     inkscape:connector-curvature="0"
     id="path86"
     d="m 352,80 v 256 h 32 V 80 Z" />
  <path
     style="fill:none;stroke:#000000;stroke-width:2;stroke-linecap:round;stroke-linejoin:bevel"
     inkscape:connector-curvature="0"
     id="path88"
     d="M 304,80 V 64 h 128 v 16 z" />
  <path
     style="fill:#000000;stroke:none"
     inkscape:connector-curvature="0"
     id="path90"
     d="m 276,296 c 10,-5 13,-5 28,-8 -15,-3 -18,-3 -28,-8 2,6 2,10 0,16" />
  <path
     style="fill:#000000;stroke:none"
     inkscape:connector-curvature="0"
     id="path92"
     d="m 276,280 c 10,-5 13,-5 28,-8 -15,-3 -18,-3 -28,-8 2,6 2,10 0,16" />
  <text
     font-size="40"
     id="text96"
     style="font-size:40px;font-family:Helvetica;fill:#000000;stroke:none"
     x="284"
     y="48">
    <tspan
       x="284"
       y="48"
       id="tspan94">Pendulum</tspan>
  </text>
  <path
     style="fill:none;stroke:#000000;stroke-width:2;stroke-linecap:round;stroke-linejoin:bevel"
     inkscape:connector-curvature="0"
     id="path100"
     d="M 0,432 V 0 h 736 v 432 z" />
</svg>

<svg xmlns="http://www.w3.org/2000/svg"
   xmlns:xlink="http://www.w3.org/1999/xlink"
   version="1.1"
   id="rod-pendulum" width="100%" height="100%"  viewBox="-6 -6 742 438">
<desc>
XCircuit Version 3.7
File "rod-pendulum.ps" Page 1
</desc>
<g stroke="black">
<g transform="matrix(   1    0   -0    1  32 208)" fill="#000000" >
<text stroke="none" font-family="Helvetica" font-size="40" ><tspan x="0" y="0">SQ1</tspan>
</text></g>
<g transform="matrix(   1    0   -0    1  32 400)" fill="#000000" >
<text stroke="none" font-family="Helvetica" font-size="40" ><tspan x="0" y="0">GND</tspan>
</text></g>
<g transform="matrix(   1    0   -0    1 624 128)" fill="#000000" >
<text stroke="none" font-family="Helvetica" font-size="40" ><tspan x="0" y="0">SEN</tspan>
</text></g>
<path d="M258,256 L240,288 222,256 z" fill="#000000" stroke="none" />
<path d="M240,224 L240,256 " fill="none" stroke-width="2" stroke-linejoin="bevel" stroke-linecap="round" stroke="#000000" />
<path d="M240,320 L240,288 " fill="none" stroke-width="2" stroke-linejoin="bevel" stroke-linecap="round" stroke="#000000" />
<path d="M258,288 L222,288 " fill="none" stroke-width="2" stroke-linejoin="bevel" stroke-linecap="round" stroke="#000000" />
<path d="M448,272 L432,272 " fill="none" stroke-width="2" stroke-linejoin="bevel" stroke-linecap="round" stroke="#000000" />
<path d="M448,224 L448,320 " fill="none" stroke-width="2" stroke-linejoin="bevel" stroke-linecap="round" stroke="#000000" />
<path d="M496,224 L448,250 " fill="none" stroke-width="2" stroke-linejoin="bevel" stroke-linecap="round" stroke="#000000" />
<path d="M496,224 L496,208 " fill="none" stroke-width="2" stroke-linejoin="bevel" stroke-linecap="round" stroke="#000000" />
<path d="M496,320 L448,294 " fill="none" stroke-width="2" stroke-linejoin="bevel" stroke-linecap="round" stroke="#000000" />
<path d="M496,320 L496,336 " fill="none" stroke-width="2" stroke-linejoin="bevel" stroke-linecap="round" stroke="#000000" />
<path d="M468,313 C479,314 482,315 496,320 C485,310 482,308 476,299 C474,305 472,309 468,313 " fill="#000000" stroke="none" />
<path d="M16,160 L16,224 128,224 128,160 z" fill="none" stroke-width="2" stroke-linejoin="bevel" stroke-linecap="round" stroke="#000000" />
<path d="M16,352 L16,416 128,416 128,352 z" fill="none" stroke-width="2" stroke-linejoin="bevel" stroke-linecap="round" stroke="#000000" />
<path d="M608,80 L608,144 720,144 720,80 z" fill="none" stroke-width="2" stroke-linejoin="bevel" stroke-linecap="round" stroke="#000000" />
<path d="M276,264 C286,259 289,259 304,256 C289,253 286,253 276,248 C278,254 278,258 276,264 " fill="#000000" stroke="none" />
<g transform="matrix(   1    0   -0    1 128 288)" fill="#000000" >
<text stroke="none" font-family="Helvetica" font-size="40" ><tspan x="0" y="0">LED</tspan>
</text></g>
<ellipse cx="240" cy="208" rx="16" ry="16" fill="none" stroke-width="2" stroke-linejoin="bevel" stroke-linecap="round" stroke="#000000" />
<ellipse cx="240" cy="336" rx="16" ry="16" fill="none" stroke-width="2" stroke-linejoin="bevel" stroke-linecap="round" stroke="#000000" />
<path d="M240,192 C256,192 176,144 128,176 " fill="none" stroke-width="2" stroke-linejoin="bevel" stroke-linecap="round" stroke="#000000" />
<path d="M128,384 C144,384 224,352 240,352 " fill="none" stroke-width="2" stroke-linejoin="bevel" stroke-linecap="round" stroke="#000000" />
<ellipse cx="496" cy="192" rx="16" ry="16" fill="none" stroke-width="2" stroke-linejoin="bevel" stroke-linecap="round" stroke="#000000" />
<ellipse cx="496" cy="352" rx="16" ry="16" fill="none" stroke-width="2" stroke-linejoin="bevel" stroke-linecap="round" stroke="#000000" />
<g transform="matrix(   1    0   -0    1 528 272)" fill="#000000" >
<text stroke="none" font-family="Helvetica" font-size="40" ><tspan x="0" y="0">Photo</tspan>
</text></g>
<g transform="matrix(   1    0   -0    1 528 304)" fill="#000000" >
<text stroke="none" font-family="Helvetica" font-size="40" ><tspan x="0" y="0">transistor</tspan>
</text></g>
<path d="M496,176 C512,176 544,96 608,112 " fill="none" stroke-width="2" stroke-linejoin="bevel" stroke-linecap="round" stroke="#000000" />
<path d="M496,368 C512,368 256,464 128,384 " fill="none" stroke-width="2" stroke-linejoin="bevel" stroke-linecap="round" stroke="#000000" />
<path d="M352,80 L352,336 384,336 384,80 z" fill="none" stroke-width="2" stroke-linejoin="bevel" stroke-linecap="round" stroke="#000000" />
<path d="M304,80 L304,64 432,64 432,80 z" fill="none" stroke-width="2" stroke-linejoin="bevel" stroke-linecap="round" stroke="#000000" />
<path d="M276,296 C286,291 289,291 304,288 C289,285 286,285 276,280 C278,286 278,290 276,296 " fill="#000000" stroke="none" />
<path d="M276,280 C286,275 289,275 304,272 C289,269 286,269 276,264 C278,270 278,274 276,280 " fill="#000000" stroke="none" />
<g transform="matrix(   1    0   -0    1 320  48)" fill="#000000" >
<text stroke="none" font-family="Helvetica" font-size="40" ><tspan x="0" y="0">Pendulum</tspan>
</text></g>
<path d="M0,432 L0,0 736,0 736,432 z" fill="none" stroke-width="2" stroke-linejoin="bevel" stroke-linecap="round" stroke="#000000" />
</g>
</svg>
